X:3405
T:Cooley's
M:C|
L:1/4
R:reel
Z:Boston
K:EDor
D|EBBA B2 EB|B2 AB dBAG|(3FED AD BDAG|(3FED FA dAFD|EBBAB2 EB|B2 AB def
|afec dBAF|DEFD E3:|
gf|eB ~B2 efgf|eB ~B2 gedB|A2 FA DAFA|~A2 FA defg|eB~B2 efgf|eB ~B2 defg
|afec dBAF|DEFD E2:|


